src/lib/packages/icons/src/assets/filled/copy.svg

<svg xmlns="http://www.w3.org/2000/svg" width="24" height="24" fill="none"><path fill="currentColor" d="M21 9.625v8.75c0 1.75-.875 2.625-2.625 2.625h-8.75C7.875 21 7 20.125 7 18.375v-8.75C7 7.875 7.875 7 9.625 7h8.75C20.125 7 21 7.875 21 9.625ZM15.75 3a.75.75 0 0 0-.75-.75H5.625c-2.177 0-3.375 1.198-3.375 3.375V15a.75.75 0 0 0 1.5 0V5.625c0-1.332.543-1.875 1.875-1.875H15a.75.75 0 0 0 .75-.75Z"/></svg>

<svg width="24" height="24" viewBox="0 0 24 24" fill="none" xmlns="http://www.w3.org/2000/svg">
<path d="M21 9.625V18.375C21 20.125 20.125 21 18.375 21H9.625C7.875 21 7 20.125 7 18.375V9.625C7 7.875 7.875 7 9.625 7H18.375C20.125 7 21 7.875 21 9.625ZM15.75 3C15.75 2.586 15.414 2.25 15 2.25H5.625C3.448 2.25 2.25 3.448 2.25 5.625V15C2.25 15.414 2.586 15.75 3 15.75C3.414 15.75 3.75 15.414 3.75 15V5.625C3.75 4.293 4.293 3.75 5.625 3.75H15C15.414 3.75 15.75 3.414 15.75 3Z" fill="currentColor"/>
</svg>
